2 Export/Icons/Brands/Behance.svg

<svg xmlns="http://www.w3.org/2000/svg" xmlns:xlink="http://www.w3.org/1999/xlink" width="24" height="24" viewBox="0 0 24 24">
  <defs>
    <path id="behance-a" d="M8.20550191,6 C8.73220446,6 9.21088855,6.04501731 9.64605591,6.14105425 C10.0789724,6.23859176 10.4488646,6.38864946 10.7602344,6.59873026 C11.0678527,6.80881105 11.3101959,7.08641781 11.4805114,7.43905342 C11.6493263,7.79168904 11.7356095,8.22685639 11.7356095,8.7370526 C11.7356095,9.29226612 11.6080604,9.75744502 11.3552132,10.1325893 C11.1016157,10.5077336 10.7272217,10.807849 10.2282798,11.0479413 C10.9080412,11.2430163 11.4107346,11.5881491 11.7453633,12.0758366 C12.0814925,12.5710271 12.2443051,13.163755 12.2443051,13.8465176 C12.2443051,14.409234 12.1467676,14.8894187 11.9366868,15.2945745 C11.726606,15.7072332 11.4339935,16.044863 11.0663521,16.307464 C10.7062136,16.5685644 10.2785491,16.7576371 9.81337025,16.8829353 C9.35569424,17.0067329 8.874009,17.0735086 8.38031914,17.0735086 L3,17.0735086 L3,6.00525202 L8.20550191,6.00525202 L8.20550191,6 Z M15.7098879,15.1250093 C16.0400149,15.4461327 16.5149475,15.6074448 17.1309344,15.6074448 C17.5736046,15.6074448 17.9562518,15.4964021 18.2788759,15.2720658 C18.5969982,15.0544821 18.7890721,14.8143898 18.8641009,14.5667946 L20.8058477,14.5667946 C20.5034814,15.5271639 20.0195453,16.2174294 19.3802995,16.6300881 C18.7425542,17.0502497 17.9667558,17.2528276 17.0694107,17.2528276 C16.4414192,17.2528276 15.8809537,17.15529 15.3647552,16.9527121 C14.859811,16.7501342 14.4343974,16.4650246 14.0742589,16.0973832 C13.726125,15.7297418 13.4567714,15.2870716 13.2661981,14.7693725 C13.0763751,14.2516734 12.9863405,13.6814541 12.9863405,13.0662175 C12.9863405,12.4637358 13.0876295,11.9107731 13.2887068,11.393074 C13.4912847,10.8678721 13.7718926,10.4327047 14.1290299,10.0500576 C14.5004228,9.6674104 14.9265867,9.37854931 15.4315309,9.15421303 C15.936475,8.92987676 16.4819348,8.82933809 17.0971714,8.82933809 C17.779934,8.82933809 18.3651591,8.95238541 18.8828582,9.221739 C19.3855515,9.47683711 19.7982102,9.83697561 20.1283371,10.272143 C20.4584641,10.711812 20.6910535,11.2175065 20.8336084,11.7877258 C20.9761632,12.3504422 21.0211805,12.9431702 20.991169,13.5734125 L15.2214501,13.5734125 C15.2214501,14.2036549 15.4315309,14.7978834 15.7541549,15.1227584 L15.6941318,15.145267 L15.7098879,15.1250093 Z M8.02693323,15.1625237 C8.2647747,15.1625237 8.49211213,15.140015 8.70669465,15.0927468 C8.92427833,15.0477295 9.11785277,14.9689492 9.27916481,14.8676603 C9.43672541,14.7663713 9.57177734,14.6215656 9.66931485,14.4302421 C9.76685236,14.2501728 9.81186968,14.0025776 9.81186968,13.7099651 C9.81186968,13.1472487 9.6468062,12.7420928 9.33168501,12.4944976 C9.00906094,12.2544053 8.58889935,12.1343591 8.06369737,12.1343591 L5.43093488,12.1343591 L5.43093488,15.1730277 L8.02693323,15.1730277 L8.02693323,15.1505191 L8.02693323,15.1625237 Z M18.2361094,10.9233934 C17.9720079,10.6345323 17.5308382,10.4792226 16.9928813,10.4792226 C16.6417463,10.4792226 16.3513846,10.534744 16.1180449,10.6577913 C15.8914577,10.7703346 15.7053862,10.9203923 15.5628314,11.1004615 C15.4202765,11.2805308 15.3249899,11.4606 15.2687182,11.6631779 C15.2124466,11.8582529 15.1786836,12.0383222 15.1674293,12.1958828 L18.7403033,12.1958828 C18.6877831,11.6331664 18.4927081,11.2205077 18.2301071,10.9278951 L18.2301071,10.935398 L18.2361094,10.9233934 Z M7.8918813,10.461966 C8.32254692,10.461966 8.67968427,10.3614273 8.96104247,10.1528471 C9.24165038,9.95026918 9.37670232,9.61263933 9.37670232,9.14896101 C9.37670232,8.89086175 9.32418212,8.68003067 9.24165038,8.51421691 C9.14411287,8.34915343 9.01656382,8.22160437 8.86650611,8.13006917 C8.70894552,8.03703339 8.52887627,7.97250858 8.32629836,7.93724502 C8.12372046,7.89747972 7.90613678,7.88172366 7.69605599,7.88172366 L5.42343199,7.88172366 L5.42343199,10.4627163 L7.8918813,10.4627163 L7.8918813,10.461966 Z M14.7180065,6.74203537 L19.1957285,6.74203537 L19.1957285,7.83295491 L14.7180065,7.83295491 L14.7180065,6.73303191 L14.7180065,6.74053479 L14.7180065,6.74203537 Z"/>
  </defs>
  <g fill="none" fill-rule="evenodd">
    <polygon points="0 0 24 0 24 24 0 24"/>
    <mask id="behance-b" fill="#fff">
      <use xlink:href="#behance-a"/>
    </mask>
    <use fill="#000" xlink:href="#behance-a"/>
    <g fill="#000" mask="url(#behance-b)">
      <rect width="24" height="24"/>
    </g>
  </g>
</svg>

<svg xmlns="http://www.w3.org/2000/svg" xmlns:xlink="http://www.w3.org/1999/xlink" width="24" height="24" viewBox="0 0 24 24">
  <defs>
    <path id="behance-a" d="M8.206 6a6.69 6.69 0 0 1 1.44.141 3.24 3.24 0 0 1 1.114.458c.308.21.55.487.72.84.17.353.256.788.256 1.298 0 .555-.128 1.02-.38 1.396-.254.375-.629.675-1.128.915.68.195 1.183.54 1.517 1.028.336.495.5 1.088.5 1.77 0 .563-.098 1.043-.308 1.449-.21.412-.503.75-.87 1.012-.36.262-.788.45-1.254.576-.457.124-.939.19-1.433.19H3V6.006h5.206V6zm7.504 9.125c.33.321.805.482 1.42.482.444 0 .826-.11 1.149-.335.318-.218.51-.458.585-.705h1.942c-.303.96-.786 1.65-1.426 2.063-.637.42-1.413.623-2.31.623a4.599 4.599 0 0 1-1.705-.3 3.712 3.712 0 0 1-1.29-.856 3.827 3.827 0 0 1-.809-1.328 4.923 4.923 0 0 1-.28-1.703c0-.602.102-1.155.303-1.673.202-.525.483-.96.84-1.343a4.08 4.08 0 0 1 1.303-.896c.504-.224 1.05-.325 1.665-.325.683 0 1.268.123 1.786.393.503.255.915.615 1.245 1.05.33.44.563.946.706 1.516.142.562.187 1.155.157 1.785h-5.77c0 .63.21 1.225.533 1.55l-.06.022.016-.02zm-7.683.038c.238 0 .465-.023.68-.07a1.74 1.74 0 0 0 .572-.225c.158-.102.293-.246.39-.438.098-.18.143-.427.143-.72 0-.563-.165-.968-.48-1.216-.323-.24-.743-.36-1.268-.36H5.43v3.039h2.596v-.022.012zm10.21-4.24c-.265-.288-.706-.444-1.244-.444-.351 0-.642.056-.875.179a1.617 1.617 0 0 0-.555.442c-.143.18-.238.36-.294.563a2.63 2.63 0 0 0-.102.533h3.573c-.052-.563-.247-.975-.51-1.268v.007l.006-.012zm-10.345-.461c.43 0 .788-.1 1.069-.31.28-.202.416-.54.416-1.003 0-.258-.053-.469-.135-.635a1.097 1.097 0 0 0-.375-.384 1.589 1.589 0 0 0-.54-.193 3.32 3.32 0 0 0-.63-.055H5.422v2.58h2.469zm6.826-3.72h4.478v1.091h-4.478v-1.1.009z"/>
  </defs>
  <g fill="none" fill-rule="evenodd">
    <polygon points="0 0 24 0 24 24 0 24"/>
    <mask id="behance-b" fill="#fff">
      <use xlink:href="#behance-a"/>
    </mask>
    <use fill="#000" xlink:href="#behance-a"/>
    <g fill="#000" mask="url(#behance-b)">
      <rect width="24" height="24"/>
    </g>
  </g>
</svg>
